file/y-combinator.svg

<svg clip-rule="evenodd" fill-rule="evenodd" stroke-linejoin="round" stroke-miterlimit="1.41421" viewBox="0 0 560 400" xmlns="http://www.w3.org/2000/svg"><g transform="matrix(1.05469 0 0 1.05469 145 65)"><path d="m0 0h256v256h-256z" fill="#fb651e"/><path d="m119.374 144.746-43.941-82.314h20.081l25.848 52.092c.398.928.862 1.889 1.392 2.883s.994 2.022 1.391 3.082c.266.398.464.762.597 1.094.133.331.265.629.398.894.662 1.326 1.259 2.618 1.789 3.877.53 1.26.994 2.419 1.392 3.48 1.06-2.254 2.22-4.673 3.479-7.257 1.26-2.585 2.552-5.269 3.877-8.053l26.246-52.092h18.689l-44.338 83.308v53.087h-16.9z" fill="#fff" fill-rule="nonzero"/></g></svg>

<?xml version="1.0" encoding="UTF-8" standalone="no"?>
<!DOCTYPE svg PUBLIC "-//W3C//DTD SVG 1.1//EN" "http://www.w3.org/Graphics/SVG/1.1/DTD/svg11.dtd">
<svg width="100%" height="100%" viewBox="0 0 560 400" version="1.1" xmlns="http://www.w3.org/2000/svg" xmlns:xlink="http://www.w3.org/1999/xlink" xml:space="preserve" xmlns:serif="http://www.serif.com/" style="fill-rule:evenodd;clip-rule:evenodd;stroke-linejoin:round;stroke-miterlimit:1.41421;">
    <g transform="matrix(1.05469,0,0,1.05469,145,65)">
        <rect x="0" y="0" width="256" height="256" style="fill:rgb(251,101,30);"/>
        <path d="M119.374,144.746L75.433,62.432L95.514,62.432L121.362,114.524C121.76,115.452 122.224,116.413 122.754,117.407C123.284,118.401 123.748,119.429 124.145,120.489C124.411,120.887 124.609,121.251 124.742,121.583C124.875,121.914 125.007,122.212 125.14,122.477C125.802,123.803 126.399,125.095 126.929,126.354C127.459,127.614 127.923,128.773 128.321,129.834C129.381,127.58 130.541,125.161 131.8,122.577C133.06,119.992 134.352,117.308 135.677,114.524L161.923,62.432L180.612,62.432L136.274,145.74L136.274,198.827L119.374,198.827L119.374,144.746Z" style="fill:white;fill-rule:nonzero;"/>
    </g>
</svg>
